svgs/regular/money-bill.svg

<svg xmlns="http://www.w3.org/2000/svg" viewBox="0 0 576 512"><!-- Font Awesome Pro 6.0.0-alpha2 by @fontawesome - https://fontawesome.com License - https://fontawesome.com/license (Commercial License) --><path d="M512 64H64C28.654 64 0 92.652 0 128V384C0 419.346 28.654 448 64 448H512C547.348 448 576 419.346 576 384V128C576 92.652 547.348 64 512 64ZM528 336C492.625 336 464 364.625 464 400H112C112 364.625 83.375 336 48 336V176C83.375 176 112 147.375 112 112H464C464 147.375 492.625 176 528 176V336ZM368 256C368 309.018 332.184 352 288 352S208 309.018 208 256C208 202.98 243.816 160 288 160S368 202.98 368 256Z"/></svg>

<svg xmlns="http://www.w3.org/2000/svg" viewBox="0 0 576 512"><!--! Font Awesome Pro 6.0.0-alpha3 by @fontawesome - https://fontawesome.com License - https://fontawesome.com/license (Commercial License) --><path d="M512 64H64C28.65 64 0 92.65 0 128v256c0 35.35 28.65 64 64 64h448c35.35 0 64-28.65 64-64V128C576 92.65 547.3 64 512 64zM528 336c-35.38 0-64 28.62-64 64h-352c0-35.38-28.62-64-64-64v-160c35.38 0 64-28.62 64-64h352c0 35.38 28.62 64 64 64V336zM368 256c0 53.02-35.82 96-80 96S208 309 208 256c0-53.02 35.82-96 80-96S368 202.1 368 256z"/></svg>
